icon/lg/dart.svg

<?xml version="1.0" encoding="UTF-8"?>
<svg viewBox="0 0 256 256" version="1.1" xmlns="http://www.w3.org/2000/svg" preserveAspectRatio="xMidYMid" height="1em" width="1em">
  <defs>
    <radialGradient cx="50%" cy="50.0016175%" fx="50%" fy="50.0016175%" r="50.0036767%" gradientTransform="translate(0.500000,0.500016),scale(1.000000,0.999853),translate(-0.500000,-0.500016)" id="dartGradient-1">
      <stop stop-color="#FFFFFF" stop-opacity="0.1" offset="0%"/>
      <stop stop-color="#FFFFFF" stop-opacity="0" offset="100%"/>
    </radialGradient>
  </defs>
  <g>
    <path d="M52.2087928,203.791207 L8.41288046,159.995295 C3.21835024,154.669019 0,147.140715 0,139.781797 C0,136.375239 1.91971769,131.048963 3.36891634,128 L43.7959124,43.7959124 L52.2087928,203.791207 Z" fill="#01579B"/>
    <path d="M202.116159,52.2087928 L158.320247,8.41288046 C154.499632,4.57344508 146.53845,0 139.800618,0 C134.003823,0 128.319953,1.16688722 124.649904,3.36891634 L43.8147331,43.7959124 L202.116159,52.2087928 Z" fill="#40C4FF"/>
    <polygon fill="#40C4FF" points="104.417586 256 210.52904 256 210.52904 210.52904 131.368916 185.252757 58.9466255 210.52904"/>
    <path d="M43.7959124,180.208793 C43.7959124,193.7221 45.4897809,197.034554 52.2087928,203.791207 L58.9466255,210.52904 L210.52904,210.52904 L136.431701,126.324952 L43.7959124,43.7959124 L43.7959124,180.208793 Z" fill="#29B6F6"/>
    <path d="M178.533745,43.7770916 L43.7959124,43.7770916 L210.52904,210.510219 L256,210.510219 L256,106.092633 L202.097339,52.1899721 C194.531392,44.6052051 187.812381,43.7770916 178.533745,43.7770916 Z" fill="#01579B"/>
    <path d="M53.9026614,205.466255 C47.1648287,198.709602 45.4897809,192.047052 45.4897809,180.208793 L45.4897809,45.4709602 L43.8147331,43.7959124 L43.8147331,180.208793 C43.7959124,192.047052 43.7959124,195.321864 53.9026614,205.466255 L58.9466255,210.510219 L58.9466255,210.510219 L53.9026614,205.466255 Z" fill="#FFFFFF" opacity="0.2"/>
    <polygon fill="#263238" opacity="0.2" points="254.324952 104.417586 254.324952 208.835171 208.853992 208.835171 210.52904 210.52904 256 210.52904 256 106.092633"/>
    <path d="M202.116159,52.2087928 C193.759741,43.8523747 186.927805,43.7959124 176.858697,43.7959124 L43.8147331,43.7959124 L45.4897809,45.4709602 L176.858697,45.4709602 C181.883841,45.4709602 194.569034,44.6240259 202.116159,52.2087928 L202.116159,52.2087928 Z" fill="#FFFFFF" opacity="0.2"/>
    <path d="M254.324952,104.417586 L202.116159,52.2087928 L158.320247,8.41288046 C154.499632,4.57344508 146.53845,0 139.800618,0 C134.003823,0 128.319953,1.16688722 124.649904,3.36891634 L43.8147331,43.7959124 L3.3877371,128 C1.93853845,131.067784 0.0188207617,136.39406 0.0188207617,139.781797 C0.0188207617,147.140715 3.25599177,154.650199 8.43170122,159.995295 L48.7834142,200.064696 C49.743273,201.250404 50.8725187,202.454933 52.2087928,203.791207 L53.8838406,205.466255 L58.9278047,210.510219 L102.723717,254.306131 L104.398765,255.981179 L208.816351,255.981179 L210.491398,255.981179 L210.491398,210.510219 L255.962358,210.510219 L255.962358,210.397295 L255.962358,106.092633 L254.324952,104.417586 Z" fill="url(#dartGradient-1)" opacity="0.2"/>
  </g>
</svg>

<svg width="256" height="256" xmlns="http://www.w3.org/2000/svg" preserveAspectRatio="xMidYMid"><defs><radialGradient cx="50%" cy="50.002%" fx="50%" fy="50.002%" r="50.004%" gradientTransform="matrix(1 0 0 .99985 0 0)" id="a"><stop stop-color="#FFF" stop-opacity=".1" offset="0%"/><stop stop-color="#FFF" stop-opacity="0" offset="100%"/></radialGradient></defs><path d="M52.209 203.791 8.413 159.995C3.218 154.67 0 147.141 0 139.782c0-3.407 1.92-8.733 3.369-11.782l40.427-84.204 8.413 159.995Z" fill="#01579B"/><path d="M202.116 52.209 158.32 8.413C154.5 4.573 146.538 0 139.8 0c-5.796 0-11.48 1.167-15.15 3.369L43.815 43.796l158.301 8.413ZM104.418 256h106.111v-45.471l-79.16-25.276-72.422 25.276z" fill="#40C4FF"/><path d="M43.796 180.209c0 13.513 1.694 16.826 8.413 23.582l6.738 6.738h151.582l-74.097-84.204-92.636-82.53V180.21Z" fill="#29B6F6"/><path d="M178.534 43.777H43.796L210.529 210.51H256V106.093L202.097 52.19c-7.566-7.585-14.285-8.413-23.563-8.413Z" fill="#01579B"/><path d="M53.903 205.466c-6.738-6.756-8.413-13.419-8.413-25.257V45.47l-1.675-1.675v136.413c-.02 11.838-.02 15.113 10.088 25.257l5.044 5.044-5.044-5.044Z" fill="#FFF" opacity=".2"/><path fill="#263238" opacity=".2" d="M254.325 104.418v104.417h-45.471l1.675 1.694H256V106.093z"/><path d="M202.116 52.209c-8.356-8.357-15.188-8.413-25.257-8.413H43.815l1.675 1.675h131.369c5.025 0 17.71-.847 25.257 6.738Z" fill="#FFF" opacity=".2"/><path d="m254.325 104.418-52.209-52.21L158.32 8.414C154.5 4.573 146.538 0 139.8 0c-5.796 0-11.48 1.167-15.15 3.369L43.815 43.796 3.388 128c-1.45 3.068-3.37 8.394-3.37 11.782 0 7.359 3.238 14.868 8.414 20.213l40.351 40.07c.96 1.185 2.09 2.39 3.426 3.726l1.675 1.675 5.044 5.044 43.796 43.796 1.675 1.675H210.49v-45.47h45.471V106.092l-1.637-1.675Z" fill="url(#a)" opacity=".2"/></svg>
